img/svg/icon6.svg

<svg xmlns="http://www.w3.org/2000/svg" preserveAspectRatio="xMidYMid" width="56" height="50" viewBox="0 0 56 50"><defs><style>.cls-2 { fill: #000000; stroke: #ff4700; stroke-linejoin: round; stroke-width: 1px; fill-opacity: 0; }</style></defs><path d="M53.678 36.311c-1.173 1.183-2.732 1.834-4.39 1.834-1.66 0-3.222-.652-4.395-1.834l-1.979-1.911-2.006 1.937c-1.146 1.157-2.708 1.808-4.366 1.808-1.661 0-3.222-.652-4.392-1.834-1.175-1.18-1.821-2.753-1.821-4.422 0-1.673.647-3.242 1.822-4.423 1.171-1.181 2.731-1.835 4.391-1.835 1.66 0 3.221.651 4.394 1.835l1.977 1.91 2.007-1.94c1.149-1.154 2.708-1.805 4.368-1.805 1.657 0 3.216.651 4.39 1.832 1.177 1.182 1.822 2.751 1.822 4.424 0 1.673-.648 3.246-1.822 4.424zm-15.259-6.262c-.522-.523-1.179-.797-1.877-.797s-1.355.274-1.846.772c-.498.501-.77 1.16-.77 1.864 0 .701.272 1.363.767 1.861.989.996 2.71.996 3.698 0l1.927-1.86-1.899-1.84zm12.717-.029c-.989-.995-2.711-.995-3.699.003l-1.927 1.861 1.9 1.84c1.041 1.046 2.737 1.022 3.726.025.495-.498.767-1.162.766-1.865 0-.704-.271-1.364-.766-1.864zm-26.496-21.017c.856 0 1.551.699 1.551 1.562v15.353l-10.487 8.61c-.287.236-.634.351-.979.351-.45 0-.897-.196-1.203-.574-.541-.669-.442-1.653.222-2.198l9.345-7.673v-13.869c0-.863.693-1.562 1.551-1.562zm21.94 11.325c-.276.683-1.007.918-1.625.522l-5.509-3.536c-.617-.397-.551-.904.146-1.128l2.538-.815c-2.31-4.562-6.188-8.017-10.992-9.77-5.022-1.829-10.45-1.58-15.286.701-4.835 2.281-8.498 6.322-10.315 11.379-1.291 3.59-1.54 7.388-.765 11.031.316 1.488.803 2.948 1.46 4.36 2.266 4.869 6.279 8.559 11.299 10.388 5.022 1.83 10.454 1.591 15.285-.7 1.952-.926 3.965-2.051 4.981-.554 1.004 1.479-.019 2.083-.99 2.762-.732.512-1.548.9-2.365 1.285-5.762 2.719-12.231 3.016-18.215.835-5.983-2.18-10.764-6.577-13.464-12.379-.783-1.682-1.363-3.423-1.74-5.195-.924-4.342-.627-8.867.91-13.146 2.166-6.025 6.532-10.841 12.294-13.559 5.762-2.719 12.231-3.015 18.214-.835 5.926 2.159 10.671 6.492 13.385 12.21l2.447-.785c.697-.224 1.043.151.767.835l-2.46 6.094z" id="path-1" class="cls-2" fill-rule="evenodd"/></svg>

<svg xmlns="http://www.w3.org/2000/svg" xmlns:xlink="http://www.w3.org/1999/xlink" preserveAspectRatio="xMidYMid" width="56" height="50" viewBox="0 0 56 50">
  <defs>
    <style>

      .cls-2 {
        fill: #000000;
        stroke: #ff4700;
        stroke-linejoin: round;
        stroke-width: 1px;
        fill-opacity: 0;
      }
    </style>
  </defs>
  <path d="M53.678,36.311 C52.505,37.494 50.946,38.145 49.288,38.145 C47.628,38.145 46.066,37.493 44.893,36.311 C44.893,36.311 42.914,34.400 42.914,34.400 C42.914,34.400 40.908,36.337 40.908,36.337 C39.762,37.494 38.200,38.145 36.542,38.145 C34.881,38.145 33.320,37.493 32.150,36.311 C30.975,35.131 30.329,33.558 30.329,31.889 C30.329,30.216 30.976,28.647 32.151,27.466 C33.322,26.285 34.882,25.631 36.542,25.631 C38.202,25.631 39.763,26.282 40.936,27.466 C40.936,27.466 42.913,29.376 42.913,29.376 C42.913,29.376 44.920,27.436 44.920,27.436 C46.069,26.282 47.628,25.631 49.288,25.631 C50.945,25.631 52.504,26.282 53.678,27.463 C54.855,28.645 55.500,30.214 55.500,31.887 C55.500,33.560 54.852,35.133 53.678,36.311 ZM38.419,30.049 C37.897,29.526 37.240,29.252 36.542,29.252 C35.844,29.252 35.187,29.526 34.696,30.024 C34.198,30.525 33.926,31.184 33.926,31.888 C33.926,32.589 34.198,33.251 34.693,33.749 C35.682,34.745 37.403,34.745 38.391,33.749 C38.391,33.749 40.318,31.889 40.318,31.889 C40.318,31.889 38.419,30.049 38.419,30.049 ZM51.136,30.020 C50.147,29.025 48.425,29.025 47.437,30.023 C47.437,30.023 45.510,31.884 45.510,31.884 C45.510,31.884 47.410,33.724 47.410,33.724 C48.451,34.770 50.147,34.746 51.136,33.749 C51.631,33.251 51.903,32.587 51.902,31.884 C51.902,31.180 51.631,30.520 51.136,30.020 ZM24.640,9.003 C25.496,9.003 26.191,9.702 26.191,10.565 C26.191,10.565 26.191,25.918 26.191,25.918 C26.191,25.918 15.704,34.528 15.704,34.528 C15.417,34.764 15.070,34.879 14.725,34.879 C14.275,34.879 13.828,34.683 13.522,34.305 C12.981,33.636 13.080,32.652 13.744,32.107 C13.744,32.107 23.089,24.434 23.089,24.434 C23.089,24.434 23.089,10.565 23.089,10.565 C23.089,9.702 23.782,9.003 24.640,9.003 ZM46.580,20.328 C46.304,21.011 45.573,21.246 44.955,20.850 C44.955,20.850 39.446,17.314 39.446,17.314 C38.829,16.917 38.895,16.410 39.592,16.186 C39.592,16.186 42.130,15.371 42.130,15.371 C39.820,10.809 35.942,7.354 31.138,5.601 C26.116,3.772 20.688,4.021 15.852,6.302 C11.017,8.583 7.354,12.624 5.537,17.681 C4.246,21.271 3.997,25.069 4.772,28.712 C5.088,30.200 5.575,31.660 6.232,33.072 C8.498,37.941 12.511,41.631 17.531,43.460 C22.553,45.290 27.985,45.051 32.816,42.760 C34.768,41.834 36.781,40.709 37.797,42.206 C38.801,43.685 37.778,44.289 36.807,44.968 C36.075,45.480 35.259,45.868 34.442,46.253 C28.680,48.972 22.211,49.269 16.227,47.088 C10.244,44.908 5.463,40.511 2.763,34.709 C1.980,33.027 1.400,31.286 1.023,29.514 C0.099,25.172 0.396,20.647 1.933,16.368 C4.099,10.343 8.465,5.527 14.227,2.809 C19.989,0.090 26.458,-0.206 32.441,1.974 C38.367,4.133 43.112,8.466 45.826,14.184 C45.826,14.184 48.273,13.399 48.273,13.399 C48.970,13.175 49.316,13.550 49.040,14.234 C49.040,14.234 46.580,20.328 46.580,20.328 Z" id="path-1" class="cls-2" fill-rule="evenodd"/>
</svg>
